X:84
T:Polska efter Olof Styrlander (1797)
R:Polska
S:efter Olof Styrlander
O:Östergötland
Z:Nils L
B:http://www.smus.se/earkiv/fmk/browselarge.php?lang=sw&katalogid=Ma+14&bildnr=00121
M:3/4
L:1/16
K:Dm
D2FA d4   TB4  | A2^ce a4   Tf4  | d2ba g2f2  e2d2 | (^cdec)   A2G2     F2E2      |
D2FA d4B4      | A2^ce a4   f4   | d2ba g2f2  e2d2 | (^cdec)   d4       D4       ::
a4   fcfa bagf | g4    eceg agfe | f4   d^cde gfed | (^cd)(ec) (AB)(GA) (FG)(EF)  |
EDFA d4   TB4  | BA^ce a4   f4   | d2ba g2f2  e2d2 | ^cdec     d4       D4       :|
(:musicend:)
(:music:)
